dist/img/home/home_intro_icon_1.svg

<svg width="64" height="83" viewBox="0 0 64 83" fill="none" xmlns="http://www.w3.org/2000/svg">
<path d="M35.5 34L40.5 30.5M27.5 33.5L22.5 30M36 40L41 43.5M27 39.5L22 43M36 37H43M27 36.5H20M42 55.6514C42 57.5844 37.299 60.5 31.5 60.5C25.8942 60.5 21.3144 57.687 21.0155 55.8433M42 55.6514V65.6514C42 67.4687 37.5379 70.5 31.5 70.5C25.4621 70.5 21 67.4687 21 65.6514V55.9885M42 55.6514V55.0583M21 55.6514V53.6514M21 55.6514C21 55.7158 21.0052 55.7797 21.0155 55.8433M21 55.6514V55.9885M21 53.6514V51.6514C21 49.8881 24.9116 47.4714 30 47.0605M21 53.6514L21.0155 55.8433M30 47.0605V37.6275L31.5 37L33 37.6275V47.0605M30 47.0605V52.6863L31.5 53L33 52.6863V47.0605M33 47.0605C38.0884 47.4714 42 49.8881 42 51.6514V55.0583M42 55.0583L62 65.8072L31.8039 82L2 65.8072L21 55.9885M42 9.65137C42 11.5844 37.299 14.5 31.5 14.5C25.8942 14.5 21.3144 11.687 21.0155 9.84328M42 9.65137V5.65137C42 3.71837 37.299 1 31.5 1C25.701 1 21 3.71837 21 5.65137V7.65137M42 9.65137V19.6514C42 21.3146 38.2625 23.9947 33 24.4372M21 9.65137V7.65137M21 9.65137C21 9.71576 21.0052 9.77974 21.0155 9.84328M21 9.65137V19.6514C21 21.3146 24.7375 23.9947 30 24.4372M21 7.65137L21.0155 9.84328M33 24.4372C32.5125 24.4782 32.0119 24.5 31.5 24.5C30.9881 24.5 30.4875 24.4782 30 24.4372M33 24.4372V33.6667L31.5 34L30 33.6667V24.4372" stroke="white"/>
</svg>

<svg width="64" height="83" viewBox="0 0 64 83" fill="none" xmlns="http://www.w3.org/2000/svg"><path d="M35.5 34l5-3.5m-13 3l-5-3.5M36 40l5 3.5m-14-4L22 43m14-6h7m-16-.5h-7m22 19.151c0 1.933-4.701 4.849-10.5 4.849-5.606 0-10.186-2.813-10.485-4.657M42 55.651v10c0 1.818-4.462 4.849-10.5 4.849S21 67.469 21 65.651V55.99m21-.338v-.593m-21 .593v-2m0 2c0 .065.005.129.015.192M21 55.651v.337m0-2.337v-2c0-1.763 3.912-4.18 9-4.59m-9 6.59l.015 2.192M30 47.06v-9.433L31.5 37l1.5.627v9.433m-3 0v5.626l1.5.314 1.5-.314V47.06m0 0c5.088.411 9 2.828 9 4.591v3.407m0 0l20 10.75L31.804 82 2 65.807l19-9.819M42 9.651c0 1.933-4.701 4.849-10.5 4.849-5.606 0-10.186-2.813-10.485-4.657M42 9.651v-4C42 3.718 37.299 1 31.5 1S21 3.718 21 5.651v2m21 2v10c0 1.664-3.737 4.344-9 4.786M21 9.651v-2m0 2c0 .065.005.129.015.192M21 9.651v10c0 1.664 3.738 4.344 9 4.786M21 7.651l.015 2.192M33 24.437a17.9 17.9 0 01-3 0m3 0v9.23L31.5 34l-1.5-.333v-9.23" stroke="#fff"/></svg>
